humanity-icon-theme/Humanity/actions/48/document-page-setup.svg

<?xml version="1.0" encoding="UTF-8" standalone="no"?>
<!-- Created with Inkscape (http://www.inkscape.org/) -->
<svg
   xmlns:dc="http://purl.org/dc/elements/1.1/"
   xmlns:cc="http://creativecommons.org/ns#"
   xmlns:rdf="http://www.w3.org/1999/02/22-rdf-syntax-ns#"
   xmlns:svg="http://www.w3.org/2000/svg"
   xmlns="http://www.w3.org/2000/svg"
   xmlns:xlink="http://www.w3.org/1999/xlink"
   xmlns:sodipodi="http://sodipodi.sourceforge.net/DTD/sodipodi-0.dtd"
   xmlns:inkscape="http://www.inkscape.org/namespaces/inkscape"
   version="1.0"
   width="48"
   height="48"
   id="svg4486"
   sodipodi:version="0.32"
   inkscape:version="0.46"
   sodipodi:docname="text-x-preview.svg"
   inkscape:output_extension="org.inkscape.output.svg.inkscape">
  <metadata
     id="metadata51">
    <rdf:RDF>
      <cc:Work
         rdf:about="">
        <dc:format>image/svg+xml</dc:format>
        <dc:type
           rdf:resource="http://purl.org/dc/dcmitype/StillImage" />
      </cc:Work>
    </rdf:RDF>
  </metadata>
  <sodipodi:namedview
     inkscape:window-height="793"
     inkscape:window-width="1440"
     inkscape:pageshadow="2"
     inkscape:pageopacity="0.0"
     guidetolerance="10.0"
     gridtolerance="10.0"
     objecttolerance="10.0"
     borderopacity="1.0"
     bordercolor="#666666"
     pagecolor="#ffffff"
     id="base"
     showgrid="false"
     inkscape:zoom="12.166667"
     inkscape:cx="22.561644"
     inkscape:cy="22.786773"
     inkscape:window-x="0"
     inkscape:window-y="24"
     inkscape:current-layer="svg4486" />
  <defs
     id="defs4488">
    <linearGradient
       inkscape:collect="always"
       id="linearGradient3257">
      <stop
         style="stop-color:#ffffff;stop-opacity:1;"
         offset="0"
         id="stop3259" />
      <stop
         style="stop-color:#ffffff;stop-opacity:0;"
         offset="1"
         id="stop3261" />
    </linearGradient>
    <linearGradient
       inkscape:collect="always"
       id="linearGradient7025">
      <stop
         style="stop-color:#e6ce46;stop-opacity:1"
         offset="0"
         id="stop7027" />
      <stop
         style="stop-color:#d6ba1c;stop-opacity:1"
         offset="1"
         id="stop7029" />
    </linearGradient>
    <linearGradient
       inkscape:collect="always"
       xlink:href="#linearGradient7025"
       id="linearGradient10840"
       gradientUnits="userSpaceOnUse"
       gradientTransform="translate(53,1.428571)"
       x1="13.630114"
       y1="28.5"
       x2="25.208096"
       y2="41.180992" />
    <linearGradient
       id="linearGradient5048">
      <stop
         id="stop5050"
         style="stop-color:#000000;stop-opacity:0"
         offset="0" />
      <stop
         id="stop5056"
         style="stop-color:#000000;stop-opacity:1"
         offset="0.5" />
      <stop
         id="stop5052"
         style="stop-color:#000000;stop-opacity:0"
         offset="1" />
    </linearGradient>
    <linearGradient
       id="linearGradient5060">
      <stop
         id="stop5062"
         style="stop-color:#000000;stop-opacity:1"
         offset="0" />
      <stop
         id="stop5064"
         style="stop-color:#000000;stop-opacity:0"
         offset="1" />
    </linearGradient>
    <linearGradient
       id="linearGradient3104">
      <stop
         id="stop3106"
         style="stop-color:#aaaaaa;stop-opacity:1"
         offset="0" />
      <stop
         id="stop3108"
         style="stop-color:#c8c8c8;stop-opacity:1"
         offset="1" />
    </linearGradient>
    <linearGradient
       id="linearGradient3600">
      <stop
         id="stop3602"
         style="stop-color:#f4f4f4;stop-opacity:1"
         offset="0" />
      <stop
         id="stop3604"
         style="stop-color:#dbdbdb;stop-opacity:1"
         offset="1" />
    </linearGradient>
    <radialGradient
       cx="102"
       cy="112.3047"
       r="139.55859"
       id="XMLID_8_"
       gradientUnits="userSpaceOnUse">
      <stop
         id="stop41"
         style="stop-color:#b7b8b9;stop-opacity:1"
         offset="0" />
      <stop
         id="stop47"
         style="stop-color:#ececec;stop-opacity:1"
         offset="0.18851049" />
      <stop
         id="stop49"
         style="stop-color:#fafafa;stop-opacity:0"
         offset="0.25718147" />
      <stop
         id="stop51"
         style="stop-color:#ffffff;stop-opacity:0"
         offset="0.30111277" />
      <stop
         id="stop53"
         style="stop-color:#fafafa;stop-opacity:0"
         offset="0.53130001" />
      <stop
         id="stop55"
         style="stop-color:#ebecec;stop-opacity:0"
         offset="0.84490001" />
      <stop
         id="stop57"
         style="stop-color:#e1e2e3;stop-opacity:0"
         offset="1" />
    </radialGradient>
    <linearGradient
       id="linearGradient3211">
      <stop
         id="stop3213"
         style="stop-color:#ffffff;stop-opacity:1"
         offset="0" />
      <stop
         id="stop3215"
         style="stop-color:#ffffff;stop-opacity:0"
         offset="1" />
    </linearGradient>
    <linearGradient
       id="linearGradient8589">
      <stop
         id="stop8591"
         style="stop-color:#fefefe;stop-opacity:1"
         offset="0" />
      <stop
         id="stop8593"
         style="stop-color:#cbcbcb;stop-opacity:1"
         offset="1" />
    </linearGradient>
    <linearGradient
       inkscape:collect="always"
       xlink:href="#linearGradient8589"
       id="linearGradient3312"
       gradientUnits="userSpaceOnUse"
       gradientTransform="matrix(0.9976985,0,0,1.0406866,0.1638029,-1.1057939)"
       x1="32.892288"
       y1="8.0590115"
       x2="36.358372"
       y2="5.4565363" />
    <linearGradient
       inkscape:collect="always"
       xlink:href="#linearGradient3211"
       id="linearGradient3316"
       gradientUnits="userSpaceOnUse"
       gradientTransform="matrix(1,0,0,0.9777778,0,-0.9666693)"
       x1="24"
       y1="1.9999999"
       x2="24"
       y2="46.01725" />
    <radialGradient
       inkscape:collect="always"
       xlink:href="#XMLID_8_"
       id="radialGradient3319"
       gradientUnits="userSpaceOnUse"
       gradientTransform="matrix(0.3617022,0,0,-0.3907784,0.8510637,47.517004)"
       cx="102"
       cy="112.3047"
       r="139.55859" />
    <linearGradient
       inkscape:collect="always"
       xlink:href="#linearGradient3600"
       id="linearGradient3322"
       gradientUnits="userSpaceOnUse"
       gradientTransform="matrix(1,0,0,0.9561695,-1.0064697e-7,-1.914922)"
       x1="25.132275"
       y1="0.98520643"
       x2="25.132275"
       y2="47.013336" />
    <linearGradient
       inkscape:collect="always"
       xlink:href="#linearGradient3104"
       id="linearGradient3324"
       gradientUnits="userSpaceOnUse"
       gradientTransform="matrix(0.8074968,0,0,0.8948322,59.410232,-2.9805533)"
       x1="-51.786404"
       y1="50.786446"
       x2="-51.786404"
       y2="2.9062471" />
    <radialGradient
       inkscape:collect="always"
       xlink:href="#linearGradient5060"
       id="radialGradient3327"
       gradientUnits="userSpaceOnUse"
       gradientTransform="matrix(2.3039948e-2,0,0,1.4700216e-2,26.360882,37.040176)"
       cx="605.71429"
       cy="486.64789"
       fx="605.71429"
       fy="486.64789"
       r="117.14286" />
    <radialGradient
       inkscape:collect="always"
       xlink:href="#linearGradient5060"
       id="radialGradient3330"
       gradientUnits="userSpaceOnUse"
       gradientTransform="matrix(-2.3039943e-2,0,0,1.4700216e-2,21.62311,37.040176)"
       cx="605.71429"
       cy="486.64789"
       fx="605.71429"
       fy="486.64789"
       r="117.14286" />
    <linearGradient
       inkscape:collect="always"
       xlink:href="#linearGradient5048"
       id="linearGradient3333"
       gradientUnits="userSpaceOnUse"
       gradientTransform="matrix(6.7324884e-2,0,0,1.4700216e-2,-0.3411391,37.040146)"
       x1="302.85715"
       y1="366.64789"
       x2="302.85715"
       y2="609.50507" />
    <filter
       inkscape:collect="always"
       id="filter3212"
       x="-0.14846256"
       width="1.2969251"
       y="-0.16434373"
       height="1.3286875">
      <feGaussianBlur
         inkscape:collect="always"
         stdDeviation="0.77391625"
         id="feGaussianBlur3214" />
    </filter>
    <linearGradient
       inkscape:collect="always"
       xlink:href="#linearGradient3257"
       id="linearGradient3263"
       x1="22.814213"
       y1="12.90625"
       x2="22.814213"
       y2="49.160408"
       gradientUnits="userSpaceOnUse" />
    <filter
       inkscape:collect="always"
       id="filter3273">
      <feGaussianBlur
         inkscape:collect="always"
         stdDeviation="0.8003571"
         id="feGaussianBlur3275" />
    </filter>
  </defs>
  <rect
     style="opacity:0.3;fill:url(#linearGradient3333);fill-opacity:1;fill-rule:nonzero;stroke:none;stroke-width:1;stroke-linecap:round;stroke-linejoin:miter;marker:none;marker-start:none;marker-mid:none;marker-end:none;stroke-miterlimit:4;stroke-dasharray:none;stroke-dashoffset:0;stroke-opacity:1;visibility:visible;display:inline;overflow:visible"
     id="rect2879"
     y="42.429947"
     x="7.7378473"
     height="3.5700529"
     width="32.508301" />
  <path
     style="opacity:0.3;fill:url(#radialGradient3330);fill-opacity:1;fill-rule:nonzero;stroke:none;stroke-width:1;stroke-linecap:round;stroke-linejoin:miter;marker:none;marker-start:none;marker-mid:none;marker-end:none;stroke-miterlimit:4;stroke-dasharray:none;stroke-dashoffset:0;stroke-opacity:1;visibility:visible;display:inline;overflow:visible"
     id="path2881"
     d="M 7.7378475,42.430102 C 7.7378475,42.430102 7.7378475,45.999958 7.7378475,45.999958 C 6.5513473,46.006679 4.869468,45.200135 4.869468,44.2148 C 4.869468,43.229467 6.1935126,42.430103 7.7378475,42.430102 z" />
  <path
     style="opacity:0.3;fill:url(#radialGradient3327);fill-opacity:1;fill-rule:nonzero;stroke:none;stroke-width:1;stroke-linecap:round;stroke-linejoin:miter;marker:none;marker-start:none;marker-mid:none;marker-end:none;stroke-miterlimit:4;stroke-dasharray:none;stroke-dashoffset:0;stroke-opacity:1;visibility:visible;display:inline;overflow:visible"
     id="path2883"
     d="M 40.246148,42.430102 C 40.246148,42.430102 40.246148,45.999958 40.246148,45.999958 C 41.432648,46.006679 43.114528,45.200135 43.114528,44.2148 C 43.114528,43.229467 41.790483,42.430103 40.246148,42.430102 z" />
  <path
     style="fill:url(#linearGradient3322);fill-opacity:1;stroke:url(#linearGradient3324);stroke-width:0.99992186;stroke-linecap:butt;stroke-linejoin:round;stroke-miterlimit:4;stroke-dasharray:none;stroke-dashoffset:0;stroke-opacity:1;display:inline"
     id="path4160"
     d="M 6.4999609,0.49719878 C 14.520256,0.49719878 22.540551,0.49719878 30.560847,0.49719878 C 31.96778,0.97185188 39.526301,6.3794034 41.500042,10.123605 C 41.500042,21.583338 41.500042,33.04307 41.500042,44.502803 C 29.833348,44.502803 18.166655,44.502803 6.4999609,44.502803 C 6.4999609,29.834268 6.4999609,15.165733 6.4999609,0.49719878 z" />
  <path
     style="fill:url(#radialGradient3319);fill-opacity:1"
     id="path4191"
     d="M 7.3617017,44 C 7.1624047,44 6.9999997,43.824541 6.9999997,43.60922 L 6.9999997,1.4051701 C 6.9999997,1.1894613 7.1624047,1.0143926 7.3617017,1.0143926 C 14.844793,1.1224073 23.137385,0.85281757 30.611384,1.0412872 L 40.894021,9.9073127 L 41,43.60922 C 41,43.824541 40.837957,44 40.638297,44 L 7.3617017,44 z" />
  <path
     style="opacity:0.6;fill:none;fill-opacity:1;stroke:url(#linearGradient3316);stroke-width:0.9999218;stroke-linecap:butt;stroke-linejoin:round;stroke-miterlimit:4;stroke-dasharray:none;stroke-dashoffset:0;stroke-opacity:1;display:inline"
     id="path2435"
     d="M 40.500039,10.258811 C 40.500039,21.207848 40.500039,32.573221 40.500039,43.522258 C 29.500013,43.522258 18.499987,43.522258 7.4999609,43.522258 C 7.4999609,29.507417 7.4999609,15.492577 7.4999609,1.4777367 C 15.061954,1.4777367 22.804295,1.4777367 30.366289,1.4777367" />
  <path
     style="opacity:0.40000000000000002;fill:#000000;fill-opacity:1;fill-rule:evenodd;stroke:none;stroke-width:1px;stroke-linecap:butt;stroke-linejoin:miter;stroke-opacity:1;display:inline;filter:url(#filter3212)"
     id="path12038"
     d="M 28.617256,0.92125832 C 32.899778,0.92125832 30.770506,9.4044296 30.770506,9.4044296 C 30.770506,9.4044296 41.128148,7.6020829 41.128148,12.223174 C 41.128148,9.6134507 29.825844,1.4945784 28.617256,0.92125832 z" />
  <path
     style="fill:url(#linearGradient3312);fill-opacity:1;fill-rule:evenodd;stroke:none;stroke-width:1px;stroke-linecap:butt;stroke-linejoin:miter;stroke-opacity:1;display:inline"
     id="path4474"
     d="M 28.617256,0.92125832 C 31.803749,0.92125832 30.953016,8.5831368 30.953016,8.5831368 C 30.953016,8.5831368 41.128148,7.6020829 41.128148,12.223174 C 41.128148,11.097235 41.214061,10.290929 40.994371,9.9395812 C 39.416058,7.4154025 32.598855,1.7511811 30.137071,1.008793 C 29.952849,0.95323837 29.544367,0.92125832 28.617256,0.92125832 z" />
  <path
     style="opacity:0.29999999999999999;fill:#000000;fill-opacity:1;fill-rule:evenodd;stroke:#000000;stroke-width:1.00000024000000010px;stroke-linecap:butt;stroke-linejoin:miter;stroke-opacity:1;display:inline;filter:url(#filter3273)"
     d="M 7.5000001,9.4714322 L 7.5000001,39.471432 C 18.16583,39.392551 28.834957,39.594277 39.5,39.440182 C 39.5,39.440182 39.5,36.60171 39.5,33.971432 L 7.5000001,9.4714322 z M 13.5,22.471432 L 28.5,33.471432 L 13.5,33.471432 L 13.5,22.471432 z"
     id="path15577"
     sodipodi:nodetypes="ccccccccc" />
  <g
     style="display:inline"
     id="g10824"
     transform="translate(-51,-6.4571385)">
    <path
       id="path4319"
       d="M 57.5,14.928571 L 57.5,44.928571 L 96.5,44.928571 L 57.5,14.928571 z M 63.5,27.928571 L 78.5,38.928571 L 63.5,38.928571 L 63.5,27.928571 z"
       style="fill:url(#linearGradient10840);fill-opacity:1;fill-rule:evenodd;stroke:#a38503;stroke-width:1.00000024px;stroke-linecap:butt;stroke-linejoin:miter;stroke-opacity:1" />
    <path
       sodipodi:nodetypes="cc"
       id="path4326"
       d="M 61.5,44.928571 L 61.5,41.928571"
       style="fill:none;fill-opacity:0.75;fill-rule:evenodd;stroke:#a38503;stroke-width:1px;stroke-linecap:round;stroke-linejoin:miter;stroke-opacity:1" />
    <path
       sodipodi:nodetypes="cc"
       id="path4328"
       d="M 67.5,44.928571 L 67.5,41.928571"
       style="fill:none;fill-opacity:0.75;fill-rule:evenodd;stroke:#a38503;stroke-width:1px;stroke-linecap:round;stroke-linejoin:miter;stroke-opacity:1" />
    <path
       sodipodi:nodetypes="cc"
       id="path4330"
       d="M 73.5,44.928571 L 73.5,41.964285"
       style="fill:none;fill-opacity:0.75;fill-rule:evenodd;stroke:#a38503;stroke-width:1px;stroke-linecap:round;stroke-linejoin:miter;stroke-opacity:1" />
    <path
       sodipodi:nodetypes="cc"
       id="path4332"
       d="M 79.5,44.928571 L 79.5,41.928571"
       style="fill:none;fill-opacity:0.75;fill-rule:evenodd;stroke:#a38503;stroke-width:1px;stroke-linecap:round;stroke-linejoin:miter;stroke-opacity:1" />
    <path
       sodipodi:nodetypes="cc"
       id="path4334"
       d="M 85.5,44.928571 L 85.5,41.928571"
       style="fill:none;fill-opacity:0.75;fill-rule:evenodd;stroke:#a38503;stroke-width:1px;stroke-linecap:round;stroke-linejoin:miter;stroke-opacity:1" />
  </g>
  <path
     sodipodi:type="inkscape:offset"
     inkscape:radius="-0.9375"
     inkscape:original="M 7.5 11.5 L 7.5 41.5 L 46.5 41.5 L 7.5 11.5 z M 13.5 24.5 L 28.5 35.5 L 13.5 35.5 L 13.5 24.5 z "
     style="opacity:0.4;fill:none;fill-opacity:1;fill-rule:evenodd;stroke:url(#linearGradient3263);stroke-width:1.00000024px;stroke-linecap:butt;stroke-linejoin:miter;stroke-opacity:1;display:inline"
     id="path14994"
     d="M 8.4375,13.40625 L 8.4375,40.5625 L 43.75,40.5625 L 8.4375,13.40625 z M 13.34375,23.5625 C 13.59893,23.523383 13.858947,23.591214 14.0625,23.75 L 29.0625,34.75 C 29.3852,34.992176 29.516785,35.413639 29.389198,35.796399 C 29.261611,36.17916 28.903465,36.437379 28.5,36.4375 L 13.5,36.4375 C 12.982254,36.437448 12.562552,36.017746 12.5625,35.5 L 12.5625,24.5 C 12.556079,24.037595 12.887768,23.639569 13.34375,23.5625 L 13.34375,23.5625 z"
     transform="translate(-0.9999999,-3.0508885)" />
</svg>

<?xml version="1.0" encoding="UTF-8" standalone="no"?>
<!-- Created with Inkscape (http://www.inkscape.org/) -->
<svg id="svg4486" xmlns:rdf="http://www.w3.org/1999/02/22-rdf-syntax-ns#" xmlns="http://www.w3.org/2000/svg" height="48" width="48" version="1.0" xmlns:cc="http://creativecommons.org/ns#" xmlns:xlink="http://www.w3.org/1999/xlink" xmlns:dc="http://purl.org/dc/elements/1.1/">
 <metadata id="metadata51">
  <rdf:RDF>
   <cc:Work rdf:about="">
    <dc:format>image/svg+xml</dc:format>
    <dc:type rdf:resource="http://purl.org/dc/dcmitype/StillImage"/>
   </cc:Work>
  </rdf:RDF>
 </metadata>
 <defs id="defs4488">
  <linearGradient id="linearGradient10840" y2="41.181" gradientUnits="userSpaceOnUse" x2="25.208" gradientTransform="translate(53 1.4286)" y1="28.5" x1="13.63">
   <stop id="stop7027" style="stop-color:#e6ce46" offset="0"/>
   <stop id="stop7029" style="stop-color:#d6ba1c" offset="1"/>
  </linearGradient>
  <linearGradient id="linearGradient5060">
   <stop id="stop5062" offset="0"/>
   <stop id="stop5064" style="stop-opacity:0" offset="1"/>
  </linearGradient>
  <linearGradient id="linearGradient3312" y2="5.4565" gradientUnits="userSpaceOnUse" x2="36.358" gradientTransform="matrix(.99770 0 0 1.0407 .16380 -1.1058)" y1="8.059" x1="32.892">
   <stop id="stop8591" style="stop-color:#fefefe" offset="0"/>
   <stop id="stop8593" style="stop-color:#cbcbcb" offset="1"/>
  </linearGradient>
  <linearGradient id="linearGradient3316" y2="46.017" gradientUnits="userSpaceOnUse" x2="24" gradientTransform="matrix(1 0 0 .97778 0 -.96667)" y1="2" x1="24">
   <stop id="stop3213" style="stop-color:#fff" offset="0"/>
   <stop id="stop3215" style="stop-color:#fff;stop-opacity:0" offset="1"/>
  </linearGradient>
  <radialGradient id="radialGradient3319" gradientUnits="userSpaceOnUse" cy="112.3" cx="102" gradientTransform="matrix(.36170 0 0 -.39078 .85106 47.517)" r="139.56">
   <stop id="stop41" style="stop-color:#b7b8b9" offset="0"/>
   <stop id="stop47" style="stop-color:#ececec" offset=".18851"/>
   <stop id="stop49" style="stop-color:#fafafa;stop-opacity:0" offset=".25718"/>
   <stop id="stop51" style="stop-color:#fff;stop-opacity:0" offset=".30111"/>
   <stop id="stop53" style="stop-color:#fafafa;stop-opacity:0" offset=".53130"/>
   <stop id="stop55" style="stop-color:#ebecec;stop-opacity:0" offset=".84490"/>
   <stop id="stop57" style="stop-color:#e1e2e3;stop-opacity:0" offset="1"/>
  </radialGradient>
  <linearGradient id="linearGradient3322" y2="47.013" gradientUnits="userSpaceOnUse" x2="25.132" gradientTransform="matrix(1 0 0 .95617 -1.0065e-7 -1.9149)" y1=".98521" x1="25.132">
   <stop id="stop3602" style="stop-color:#f4f4f4" offset="0"/>
   <stop id="stop3604" style="stop-color:#dbdbdb" offset="1"/>
  </linearGradient>
  <linearGradient id="linearGradient3324" y2="2.9062" gradientUnits="userSpaceOnUse" x2="-51.786" gradientTransform="matrix(.80750 0 0 .89483 59.41 -2.9806)" y1="50.786" x1="-51.786">
   <stop id="stop3106" style="stop-color:#aaa" offset="0"/>
   <stop id="stop3108" style="stop-color:#c8c8c8" offset="1"/>
  </linearGradient>
  <radialGradient id="radialGradient3327" xlink:href="#linearGradient5060" gradientUnits="userSpaceOnUse" cy="486.65" cx="605.71" gradientTransform="matrix(.023040 0 0 0.0147 26.361 37.04)" r="117.14"/>
  <radialGradient id="radialGradient3330" xlink:href="#linearGradient5060" gradientUnits="userSpaceOnUse" cy="486.65" cx="605.71" gradientTransform="matrix(-.023040 0 0 0.0147 21.623 37.04)" r="117.14"/>
  <linearGradient id="linearGradient3333" y2="609.51" gradientUnits="userSpaceOnUse" x2="302.86" gradientTransform="matrix(.067325 0 0 0.0147 -.34114 37.04)" y1="366.65" x1="302.86">
   <stop id="stop5050" style="stop-opacity:0" offset="0"/>
   <stop id="stop5056" offset=".5"/>
   <stop id="stop5052" style="stop-opacity:0" offset="1"/>
  </linearGradient>
  <filter id="filter3212" height="1.3287" width="1.2969" y="-.16434" x="-.14846">
   <feGaussianBlur id="feGaussianBlur3214" stdDeviation="0.77391625"/>
  </filter>
  <linearGradient id="linearGradient3263" y2="49.16" gradientUnits="userSpaceOnUse" x2="22.814" y1="12.906" x1="22.814">
   <stop id="stop3259" style="stop-color:#fff" offset="0"/>
   <stop id="stop3261" style="stop-color:#fff;stop-opacity:0" offset="1"/>
  </linearGradient>
  <filter id="filter3273">
   <feGaussianBlur id="feGaussianBlur3275" stdDeviation="0.8003571"/>
  </filter>
 </defs>
 <rect id="rect2879" style="opacity:.3;fill:url(#linearGradient3333)" height="3.5701" width="32.508" y="42.43" x="7.7378"/>
 <path id="path2881" style="opacity:.3;fill:url(#radialGradient3330)" d="m7.7378 42.43v3.57c-1.1865 0.007-2.8683-0.8-2.8683-1.785 0-0.986 1.324-1.785 2.8683-1.785z"/>
 <path id="path2883" style="opacity:.3;fill:url(#radialGradient3327)" d="m40.246 42.43v3.57c1.187 0.007 2.869-0.8 2.869-1.785 0-0.986-1.325-1.785-2.869-1.785z"/>
 <path id="path4160" style="stroke-linejoin:round;stroke:url(#linearGradient3324);stroke-width:.99992;fill:url(#linearGradient3322)" d="m6.5 0.4972h24.061c1.407 0.47465 8.965 5.8822 10.939 9.6268v34.379h-35v-44.006z"/>
 <path id="path4191" style="fill:url(#radialGradient3319)" d="m7.3617 44c-0.1993 0-0.3617-0.175-0.3617-0.391v-42.204c0-0.2155 0.1624-0.3906 0.3617-0.3906 7.4833 0.108 15.775-0.16158 23.249 0.0269l10.283 8.866 0.106 33.702c0 0.216-0.162 0.391-0.362 0.391h-33.276z"/>
 <path id="path2435" style="opacity:.6;stroke-linejoin:round;stroke:url(#linearGradient3316);stroke-width:.99992;fill:none" d="m40.5 10.259v33.263h-33v-42.044c7.562-0.0003 15.304-0.0003 22.866-0.0003"/>
 <path id="path12038" style="opacity:.4;fill-rule:evenodd;filter:url(#filter3212)" d="m28.617 0.92126c4.283 0 2.154 8.4831 2.154 8.4831s10.357-1.8023 10.357 2.8186c0-2.6095-11.302-10.728-12.511-11.302z"/>
 <path id="path4474" style="fill:url(#linearGradient3312);fill-rule:evenodd" d="m28.617 0.92126c3.187 0 2.336 7.6618 2.336 7.6618s10.175-0.981 10.175 3.6399c0-1.126 0.086-1.932-0.134-2.2834-1.578-2.5242-8.395-8.1884-10.857-8.9308-0.184-0.05556-0.593-0.08754-1.52-0.08754z"/>
 <path id="path15577" style="opacity:.3;fill-rule:evenodd;filter:url(#filter3273);stroke:#000;stroke-width:1px" d="m7.5 9.4714v30c10.666-0.078 21.335 0.123 32-0.031v-5.469l-32-24.5zm6 13l15 11h-15v-11z"/>
 <g id="g10824" transform="translate(-51 -6.4571)">
  <path id="path4319" style="fill-rule:evenodd;stroke:#a38503;stroke-width:1px;fill:url(#linearGradient10840)" d="m57.5 14.929v30h39l-39-30zm6 13l15 11h-15v-11z"/>
  <path id="path4326" style="stroke:#a38503;stroke-linecap:round;stroke-width:1px;fill:none" d="m61.5 44.929v-3"/>
  <path id="path4328" style="stroke:#a38503;stroke-linecap:round;stroke-width:1px;fill:none" d="m67.5 44.929v-3"/>
  <path id="path4330" style="stroke:#a38503;stroke-linecap:round;stroke-width:1px;fill:none" d="m73.5 44.929v-2.965"/>
  <path id="path4332" style="stroke:#a38503;stroke-linecap:round;stroke-width:1px;fill:none" d="m79.5 44.929v-3"/>
  <path id="path4334" style="stroke:#a38503;stroke-linecap:round;stroke-width:1px;fill:none" d="m85.5 44.929v-3"/>
 </g>
 <path id="path14994" style="opacity:.4;stroke:url(#linearGradient3263);stroke-width:1px;fill:none" d="m8.4375 13.406v27.156h35.312l-35.312-27.156zm4.9065 10.156c0.255-0.039 0.515 0.029 0.718 0.188l15 11c0.323 0.242 0.455 0.664 0.327 1.046-0.127 0.383-0.486 0.641-0.889 0.642h-15c-0.518-0.001-0.937-0.42-0.938-0.938v-11c-0.006-0.462 0.326-0.86 0.782-0.938z" transform="translate(-1 -3.0509)"/>
</svg>
